src/img/cuenta corriente acordeon.svg

<svg width="32" height="34" viewBox="0 0 32 34" fill="none" xmlns="http://www.w3.org/2000/svg">
<path d="M18.9297 7.56442C19.4297 7.3613 19.8984 7.40817 20.3359 7.70505C20.7734 8.00192 20.9922 8.41599 20.9922 8.94724V10.2363H22V8.94724C22 8.05661 21.6328 7.36911 20.8984 6.88474C20.1641 6.38474 19.3828 6.2988 18.5547 6.62692L9.69531 10.2363H12.3438L18.9297 7.56442ZM19 17.7363C19 18.1582 19.1406 18.5175 19.4219 18.8144C19.7188 19.0957 20.0781 19.2363 20.5 19.2363C20.9219 19.2363 21.2734 19.0957 21.5547 18.8144C21.8516 18.5175 22 18.1582 22 17.7363C22 17.3144 21.8516 16.9629 21.5547 16.6816C21.2734 16.3847 20.9219 16.2363 20.5 16.2363C20.0781 16.2363 19.7188 16.3847 19.4219 16.6816C19.1406 16.9629 19 17.3144 19 17.7363ZM20.0078 17.7363C20.0078 17.5957 20.0547 17.4785 20.1484 17.3847C20.2422 17.291 20.3594 17.2441 20.5 17.2441C20.6406 17.2441 20.7578 17.291 20.8516 17.3847C20.9453 17.4785 20.9922 17.5957 20.9922 17.7363C20.9922 17.8769 20.9453 17.9941 20.8516 18.0879C20.7578 18.1816 20.6406 18.2285 20.5 18.2285C20.3594 18.2285 20.2422 18.1816 20.1484 18.0879C20.0547 17.9941 20.0078 17.8769 20.0078 17.7363ZM22.4922 11.2441C23.1953 11.2441 23.7891 11.4863 24.2734 11.9707C24.7578 12.455 25 13.041 25 13.7285V21.7441C25 22.4316 24.7578 23.0175 24.2734 23.5019C23.7891 23.9863 23.1953 24.2285 22.4922 24.2285H8.5C8.07812 24.2285 7.71875 24.0879 7.42188 23.8066C7.14062 23.5097 7 23.1504 7 22.7285V12.7441C7 12.3222 7.14062 11.9707 7.42188 11.6894C7.71875 11.3925 8.07812 11.2441 8.5 11.2441H22.4922ZM8.5 12.2285C8.35938 12.2285 8.24219 12.2832 8.14844 12.3925C8.05469 12.4863 8.00781 12.6035 8.00781 12.7441V22.7285C8.00781 22.8691 8.05469 22.9941 8.14844 23.1035C8.24219 23.1972 8.35938 23.2441 8.5 23.2441H22.4922C22.9141 23.2441 23.2656 23.0957 23.5469 22.7988C23.8438 22.5019 23.9922 22.1504 23.9922 21.7441V13.7285C23.9922 13.3222 23.8438 12.9707 23.5469 12.6738C23.2656 12.3769 22.9141 12.2285 22.4922 12.2285H8.5Z" fill="#EC7000"/>
</svg>

<svg width="32" height="34" fill="none" xmlns="http://www.w3.org/2000/svg"><path d="M18.93 7.564c.5-.203.968-.156 1.406.141.437.297.656.711.656 1.242v1.29H22v-1.29c0-.89-.367-1.578-1.102-2.062-.734-.5-1.515-.586-2.343-.258l-8.86 3.61h2.649l6.586-2.673zM19 17.736c0 .422.14.781.422 1.078a1.51 1.51 0 001.078.422c.422 0 .773-.14 1.055-.422.297-.297.445-.656.445-1.078a1.39 1.39 0 00-.445-1.054 1.393 1.393 0 00-1.055-.446c-.422 0-.781.149-1.078.446A1.43 1.43 0 0019 17.736zm1.008 0a.477.477 0 01.492-.492.477.477 0 01.492.492.477.477 0 01-.492.492.477.477 0 01-.492-.492zm2.484-6.492c.703 0 1.297.242 1.781.727.485.484.727 1.07.727 1.758v8.015c0 .688-.242 1.273-.727 1.758-.484.484-1.078.727-1.78.727H8.5a1.51 1.51 0 01-1.078-.422A1.51 1.51 0 017 22.729v-9.985c0-.422.14-.773.422-1.055a1.468 1.468 0 011.078-.445h13.992zM8.5 12.23a.444.444 0 00-.352.164.477.477 0 00-.14.351v9.985c0 .14.047.265.14.375a.48.48 0 00.352.14h13.992c.422 0 .774-.148 1.055-.445.297-.297.445-.649.445-1.055V13.73a1.44 1.44 0 00-.445-1.055 1.393 1.393 0 00-1.055-.445H8.5z" fill="#EC7000"/></svg>
